svg/furkot/calendar.svg

<svg xmlns="http://www.w3.org/2000/svg" width="512" height="512" viewBox="0 0 512 512" data-tags="calendar" style="margin-left:2px;margin-top:2px"><path d="M 448,64 m0 0,c -16,0 -32,0 -48,0 0.89593,16.230033 0.13422,35.995005 -16.75936,44.13211 C 361.60688,121.18831 332.22486,100.60152 336,75.918024 339.01562,64.394197 332.69984,62.201779 322.39341,64 273.59561,64 224.7978,64 176,64 c 0.89593,16.230033 0.13422,35.995005 -16.75936,44.13211 C 137.60688,121.18831 108.22486,100.60152 112,75.918024 115.01562,64.394197 108.69984,62.201779 98.393413,64 79.286529,65.64847 56.797257,58.632176 41.4,73.4 26.689067,88.660518 33.619596,111.03551 32,130.01647 32.11051,237.09616 31.778869,344.18711 32.166016,451.25977 33.621576,471.67946 54.839274,482.86875 73.524611,480 199.43492,479.88931 325.3565,480.22137 451.25977,479.83398 471.67946,478.37842 482.86875,457.16073 480,438.47539 479.88947,323.23174 480.22116,207.97684 479.83398,92.740234 478.47471,76.855943 463.9588,63.708433 448,64 z m 0,383.942 c -127.94384,0.0967 -256.05665,0.0967 -384,0 0,-95.98067 0,-191.96133 0,-287.942 128,0 256,0 384,0 0,95.98067 0,191.96133 0,287.942 z M 144,96 C 160.84828,95.919493 160.80389,77.310419 160,65.032754 159.26963,46.653328 161.52971,27.893083 158.74256,9.7723125 150.31324,-9.907338 122.14032,3.953852 128,22.803294 c 0.21634,20.134938 -0.43326,40.313419 0.32509,60.421104 C 129.6967,90.493919 136.59622,96.133543 144,96 z m 224,0 C 384.84828,95.919493 384.80389,77.310419 384,65.032754 383.26963,46.653328 385.52971,27.893083 382.74256,9.7723125 374.31324,-9.907338 346.14032,3.953852 352,22.803294 c 0.21634,20.134938 -0.43326,40.313419 0.32509,60.421104 C 353.6967,90.493919 360.59622,96.133543 368,96 z m 68,396 C 314.91416,491.91934 193.82233,492.16137 72.740234,491.87891 56.781967,495.41775 41.883353,470.54514 44,466.72132 c -1.517282,16.47761 2.036042,36.19402 19.575,42.75368 19.004779,4.92464 39.15928,1.51066 58.6874,2.525 105.66438,-0.11056 211.34002,0.22119 316.99737,-0.16602 20.41969,-1.45556 31.60898,-22.67325 28.74023,-41.35859 1.86668,-14.58767 -5.26845,23.2636 -19.575,19.62461 -4.00208,1.30698 -8.22053,1.89967 -12.425,1.9 z"/></svg>

<svg xmlns="http://www.w3.org/2000/svg" width="512" height="512" data-tags="calendar" style="margin-left:2px;margin-top:2px"><path d="M448 64h-48c.896 16.23.134 35.995-16.76 44.132-21.633 13.056-51.015-7.53-47.24-32.214 3.016-11.524-3.3-13.716-13.607-11.918H176c.896 16.23.134 35.995-16.76 44.132-21.633 13.056-51.015-7.53-47.24-32.214 3.016-11.524-3.3-13.716-13.607-11.918-19.106 1.648-41.596-5.368-56.993 9.4-14.71 15.26-7.78 37.636-9.4 56.616.11 107.08-.221 214.171.166 321.244 1.456 20.42 22.673 31.609 41.359 28.74 125.91-.11 251.831.221 377.735-.166 20.42-1.456 31.609-22.673 28.74-41.359-.11-115.243.221-230.498-.166-345.735C478.474 76.856 463.959 63.708 448 64zm0 383.942c-127.944.097-256.057.097-384 0V160h384v287.942zM144 96c16.848-.08 16.804-18.69 16-30.967-.73-18.38 1.53-37.14-1.257-55.26-8.43-19.68-36.603-5.82-30.743 13.03.216 20.135-.433 40.314.325 60.421 1.372 7.27 8.271 12.91 15.675 12.776zm224 0c16.848-.08 16.804-18.69 16-30.967-.73-18.38 1.53-37.14-1.257-55.26-8.43-19.68-36.603-5.82-30.743 13.03.216 20.135-.433 40.314.325 60.421 1.372 7.27 8.271 12.91 15.675 12.776zm68 396c-121.086-.08-242.178.161-363.26-.121-15.958 3.539-30.857-21.334-28.74-25.158-1.517 16.478 2.036 36.194 19.575 42.754 19.005 4.925 39.16 1.51 58.687 2.525 105.665-.11 211.34.221 316.998-.166 20.42-1.456 31.609-22.673 28.74-41.359 1.867-14.587-5.268 23.264-19.575 19.625-4.002 1.307-8.22 1.9-12.425 1.9z"/></svg>
